; generated by PrusaSlicer 2.9.0 on 2025-01-10 at 05:44:17 UTC

; 

; external perimeters extrusion width = 0.45mm
; perimeters extrusion width = 0.45mm
; infill extrusion width = 0.45mm
; solid infill extrusion width = 0.45mm
; top infill extrusion width = 0.40mm
; first layer extrusion width = 0.42mm

M73 P0 R22
M73 Q0 S26
M201 X1000 Y1000 Z200 E5000 ; sets maximum accelerations, mm/sec^2
M203 X200 Y200 Z12 E120 ; sets maximum feedrates, mm / sec
M204 S1250 T1250 ; sets acceleration (S) and retract acceleration (R), mm/sec^2
M205 X8.00 Y8.00 Z0.40 E4.50 ; sets the jerk limits, mm/sec
M205 S0 T0 ; sets the minimum extruding and travel feed rate, mm/sec

; printing object box-opener.stl id:0 copy 0
; stop printing object box-opener.stl id:0 copy 0

;TYPE:Custom
M862.3 P "MK3S" ; printer model check
M862.1 P0.4 ; nozzle diameter check
M115 U3.14.1 ; tell printer latest fw version
G90 ; use absolute coordinates
M83 ; extruder relative mode
M104 S215 ; set extruder temp
M140 S60 ; set bed temp
M190 S60 ; wait for bed temp
M109 S215 ; wait for extruder temp
G28 W ; home all without mesh bed level
G80 X80.9745 Y82.6234 W84.4205 H44.7534 ; mesh bed levelling

G1 Z0.2 F720
G1 Y-3 F1000 ; go outside print area
G92 E0
G1 X60 E9 F1000 ; intro line
G1 X100 E12.5 F1000 ; intro line

G92 E0
M221 S95

; Don't change E values below. Excessive value can damage the printer.

M907 E538 ; set extruder motor current
G21 ; set units to millimeters
G90 ; use absolute coordinates
M83 ; use relative distances for extrusion

M900 K0.05 ; Filament gcode LA 1.5
M900 K30 ; Filament gcode LA 1.0




M107
;LAYER_CHANGE
;Z:0.2
;HEIGHT:0.2
G1 E-.8 F2100
G1 Z.6 F720
G1 X87.616 Y89.383 F10800
G1 Z.2 F720
G1 E.8 F2100
M204 S800
;TYPE:Skirt/Brim
;WIDTH:0.42
G1 F1200
G1 X88.52 Y88.497 E.03969
G1 X90.017 Y87.266 E.06077
G1 X91.608 Y86.174 E.0605
G1 X93.314 Y85.212 E.06141
G1 X95.08 Y84.411 E.0608
G1 X96.891 Y83.773 E.0602
G1 X98.76 Y83.292 E.06051
G1 X100.673 Y82.974 E.0608
G1 X102.55 Y82.826 E.05903
G1 X108.59 Y82.946 E.18942
G1 X113.759 Y83.343 E.16255
G1 X117.253 Y83.762 E.11034
G1 X122.37 Y84.597 E.16256
G1 X125.816 Y85.311 E.11034
G1 X130.843 Y86.579 E.16255
G1 X135.663 Y88.056 E.15806
G1 X139.152 Y89.288 E.11601
G1 X143.995 Y91.242 E.16374
G1 X148.698 Y93.424 E.16256
G1 X153.317 Y95.86 E.16373
G1 X157.806 Y98.53 E.16376
G1 X160.874 Y100.54 E.115
G1 X164.382 Y103.039 E.13505
G1 X165.153 Y104.096 E.04102
G1 X165.184 Y105.403 E.04099
G1 X164.463 Y106.495 E.04103
G1 X163.821 Y106.858 E.02312
G1 X109.601 Y126.29 E1.80591
G1 X107.765 Y126.745 E.05931
M73 P1 R22
G1 X105.859 Y127.047 E.06051
G1 X104.281 Y127.169 E.04962
G1 X102.389 Y127.168 E.05932
G1 X100.812 Y127.043 E.0496
G1 X98.944 Y126.747 E.0593
G1 X97.072 Y126.282 E.06048
G1 X95.57 Y125.78 E.04965
G1 X93.794 Y125.025 E.06051
G1 X92.09 Y124.119 E.06051
G1 X90.471 Y123.068 E.06052
G1 X88.694 Y121.658 E.07113
G1 X87.296 Y120.315 E.06078
M73 Q1 S26
G1 X86.026 Y118.862 E.06051
G1 X84.887 Y117.304 E.06051
G1 X83.874 Y115.628 E.0614
G1 X83.02 Y113.887 E.0608
G1 X82.325 Y112.087 E.0605
G1 X81.789 Y110.233 E.06051
G1 X81.367 Y108.004 E.07113
G1 X81.189 Y106.082 E.06052
G1 X81.179 Y104.144 E.06077
G1 X81.341 Y102.192 E.06141
G1 X81.671 Y100.28 E.06084
G1 X82.163 Y98.414 E.06051
G1 X82.815 Y96.598 E.0605
G1 X83.619 Y94.854 E.06021
G1 X84.58 Y93.169 E.06082
G1 X85.679 Y91.583 E.0605
G1 X87.147 Y89.843 E.07138
G1 X87.573 Y89.425 E.01871
M204 S1000
;WIPE_START
G1 F8640
G1 X87.616 Y89.383 E-.01388
G1 X88.52 Y88.497 E-.29227
G1 X90.017 Y87.266 E-.44752
G1 X90.182 Y87.152 E-.04633
;WIPE_END
G1 Z.6 F720
; printing object box-opener.stl id:0 copy 0
G1 X116.135 Y94.282 F10800
G1 Z.2 F720
G1 E.8 F2100
M204 S800
;TYPE:Perimeter
;WIDTH:0.419999
G1 F1200
G1 X116.148 Y94.297 E.00062
G1 X116.842 Y95.18 E.03521
G1 X117.18 Y95.661 E.01843
G1 X117.624 Y96.357 E.02588
G1 X118.078 Y97.153 E.02873
G1 X118.468 Y97.935 E.0274
G1 X118.708 Y98.471 E.01841
G1 X119.027 Y99.279 E.02724
G1 X119.219 Y99.835 E.01844
G1 X119.533 Y100.942 E.03608
G1 X119.671 Y101.519 E.0186
G1 X119.83 Y102.375 E.0273
G1 X119.9 Y102.897 E.01651
G1 X120.009 Y104.04 E.036
G1 X120.038 Y104.986 E.02968
G1 X120.016 Y105.859 E.02738
G1 X119.969 Y106.469 E.01918
G1 X119.835 Y107.596 E.03559
G1 X119.701 Y108.322 E.02315
G1 X119.473 Y109.305 E.03164
G1 X119.226 Y110.143 E.02739
G1 X119.035 Y110.698 E.0184
G1 X118.717 Y111.507 E.02725
G1 X118.479 Y112.033 E.0181
G1 X117.953 Y113.077 E.03665
G1 X117.511 Y113.83 E.02738
G1 X117.191 Y114.324 E.01845
G1 X116.687 Y115.031 E.02722
G1 X116.188 Y115.66 E.02517
G1 X115.599 Y116.332 E.02802
G1 X115.158 Y116.793 E.02
G1 X114.739 Y117.198 E.01827
G1 X114.089 Y117.774 E.02723
G1 X113.453 Y118.281 E.0255
G1 X112.695 Y118.826 E.02927
G1 X111.958 Y119.296 E.02741
G1 X111.198 Y119.727 E.02739
G1 X110.467 Y120.093 E.02563
G1 X109.978 Y120.31 E.01677
G1 X109.153 Y120.645 E.02792
G1 X108.319 Y120.929 E.02762
G1 X107.482 Y121.166 E.02728
G1 X106.633 Y121.359 E.0273
G1 X105.775 Y121.508 E.0273
G1 X104.902 Y121.613 E.02757
G1 X104.351 Y121.656 E.01733
G1 X103.453 Y121.685 E.02817
G1 X102.034 Y121.63 E.04453
G1 X100.612 Y121.459 E.04491
G1 X99.74 Y121.286 E.02787
G1 X98.883 Y121.076 E.02767
G1 X98.033 Y120.815 E.02788
G1 X97.087 Y120.467 E.0316
G1 X96.313 Y120.13 E.02647
G1 X95.556 Y119.754 E.0265
G1 X95.017 Y119.457 E.0193
G1 X94.275 Y119.003 E.02727
G1 X93.668 Y118.587 E.02307
G1 X92.966 Y118.058 E.02756
G1 X92.293 Y117.493 E.02755
G1 X91.895 Y117.126 E.01697
G1 X91.272 Y116.506 E.02756
G1 X90.688 Y115.86 E.0273
G1 X89.802 Y114.738 E.04483
G1 X89.38 Y114.125 E.02333
G1 X89.053 Y113.604 E.01929
G1 X88.704 Y112.988 E.0222
G1 X88.304 Y112.206 E.02754
G1 X87.945 Y111.404 E.02755
G1 X87.569 Y110.419 E.03306
G1 X87.315 Y109.614 E.02647
G1 X87.095 Y108.769 E.02738
G1 X86.973 Y108.194 E.01843
G1 X86.829 Y107.337 E.02725
G1 X86.757 Y106.754 E.01842
G1 X86.688 Y105.888 E.02724
G1 X86.664 Y105.015 E.02738
G1 X86.681 Y104.333 E.02139
G1 X86.74 Y103.456 E.02756
G1 X86.844 Y102.584 E.02753
G1 X87.026 Y101.545 E.03307
G1 X87.229 Y100.696 E.02737
G1 X87.477 Y99.858 E.0274
G1 X87.667 Y99.302 E.01842
G1 X87.908 Y98.689 E.02065
G1 X88.262 Y97.885 E.02754
G1 X88.657 Y97.1 E.02755
G1 X89.192 Y96.17 E.03364
G1 X89.512 Y95.677 E.01843
G1 X89.845 Y95.2 E.01824
G1 X90.374 Y94.51 E.02726
G1 X90.941 Y93.846 E.02738
G1 X91.541 Y93.211 E.02739
G1 X91.964 Y92.803 E.01843
G1 X92.614 Y92.227 E.02723
G1 X93.297 Y91.683 E.02738
G1 X94.008 Y91.175 E.0274
G1 X94.744 Y90.705 E.02738
G1 X95.29 Y90.395 E.01969
G1 X96.027 Y90.006 E.02613
G1 X96.596 Y89.747 E.0196
G1 X97.604 Y89.335 E.03414
G1 X98.185 Y89.133 E.01929
G1 X99.018 Y88.886 E.02724
G1 X99.867 Y88.681 E.02738
G1 X100.726 Y88.521 E.0274
G1 X101.592 Y88.406 E.02739
G1 X102.194 Y88.358 E.01894
G1 X103.08 Y88.32 E.02781
G1 X103.726 Y88.32 E.02025
G1 X104.791 Y88.376 E.03344
G1 X105.659 Y88.474 E.02739
G1 X106.461 Y88.607 E.02549
G1 X107.374 Y88.806 E.0293
G1 X107.94 Y88.957 E.01837
G1 X108.77 Y89.218 E.02728
G1 X109.366 Y89.44 E.01994
G1 X110.39 Y89.871 E.03483
G1 X111.172 Y90.26 E.02739
G1 X111.933 Y90.689 E.02739
G1 X112.67 Y91.158 E.02739
G1 X113.201 Y91.536 E.02044
G1 X114.066 Y92.208 E.03434
G1 X114.721 Y92.786 E.02739
G1 X115.144 Y93.194 E.01843
G1 X115.742 Y93.824 E.02723
G1 X116.096 Y94.237 E.01706
M204 S1000
G1 X116.096 Y94.237 F10800
G1 X115.844 Y94.522
M204 S800
;TYPE:External perimeter
G1 F1200
G1 X115.861 Y94.542 E.00082
G1 X116.543 Y95.41 E.03461
G1 X116.871 Y95.877 E.01789
G1 X117.306 Y96.56 E.02539
G1 X117.75 Y97.339 E.02811
G1 X118.131 Y98.103 E.02677
G1 X118.363 Y98.625 E.01791
G1 X118.676 Y99.417 E.0267
G1 X118.862 Y99.957 E.01791
G1 X119.076 Y100.681 E.02367
G1 X119.304 Y101.605 E.02984
G1 X119.46 Y102.444 E.02676
G1 X119.526 Y102.946 E.01588
G1 X119.633 Y104.07 E.0354
G1 X119.661 Y104.995 E.02902
G1 X119.639 Y105.849 E.02679
G1 X119.593 Y106.439 E.01856
G1 X119.461 Y107.547 E.03499
G1 X119.33 Y108.254 E.02254
G1 X119.107 Y109.217 E.03099
G1 X118.865 Y110.036 E.02678
G1 X118.679 Y110.576 E.01791
G1 X118.367 Y111.369 E.02672
G1 X118.135 Y111.877 E.01751
G1 X117.619 Y112.903 E.03601
G1 X117.186 Y113.639 E.02677
G1 X116.875 Y114.118 E.01791
G1 X116.38 Y114.812 E.02673
G1 X115.892 Y115.425 E.02457
G1 X115.317 Y116.082 E.02737
G1 X114.887 Y116.531 E.01949
G1 X114.477 Y116.927 E.01787
G1 X113.839 Y117.491 E.0267
G1 X113.218 Y117.986 E.0249
G1 X112.476 Y118.519 E.02865
G1 X111.756 Y118.978 E.02677
G1 X111.013 Y119.399 E.02678
G1 X110.298 Y119.755 E.02504
G1 X109.827 Y119.964 E.01616
G1 X109.017 Y120.293 E.02741
G1 X108.2 Y120.571 E.02706
G1 X107.381 Y120.803 E.02669
G1 X106.551 Y120.991 E.02668
G1 X105.713 Y121.136 E.02667
G1 X104.86 Y121.238 E.02694
G1 X104.324 Y121.28 E.01686
G1 X103.443 Y121.308 E.02764
G1 X102.063 Y121.254 E.0433
G1 X100.678 Y121.088 E.04374
M73 Q1 S25
G1 X99.821 Y120.918 E.02739
G1 X98.981 Y120.712 E.02712
G1 X98.146 Y120.455 E.02739
G1 X97.237 Y120.121 E.03036
G1 X96.463 Y119.784 E.02647
G1 X95.724 Y119.417 E.02587
G1 X95.199 Y119.127 E.01881
G1 X94.472 Y118.682 E.02673
G1 X93.882 Y118.276 E.02246
G1 X93.196 Y117.759 E.02693
G1 X92.538 Y117.207 E.02693
G1 X92.154 Y116.852 E.0164
G1 X91.546 Y116.246 E.02692
G1 X90.975 Y115.615 E.02668
G1 X90.113 Y114.524 E.0436
G1 X89.691 Y113.911 E.02333
G1 X89.373 Y113.404 E.01876
G1 X89.032 Y112.803 E.02167
G1 X88.641 Y112.038 E.02694
G1 X88.291 Y111.254 E.02692
G1 X87.818 Y109.956 E.04332
G1 X87.581 Y109.139 E.02667
G1 X87.38 Y108.296 E.02717
G1 X87.193 Y107.215 E.0344
G1 X87.131 Y106.706 E.01608
G1 X87.064 Y105.859 E.02664
G1 X87.041 Y105.005 E.02679
G1 X87.058 Y104.343 E.02076
G1 X87.116 Y103.486 E.02693
G1 X87.218 Y102.633 E.02694
G1 X87.397 Y101.614 E.03244
G1 X87.596 Y100.784 E.02676
G1 X87.838 Y99.965 E.02678
G1 X88.024 Y99.425 E.01791
G1 X88.259 Y98.827 E.02015
G1 X88.605 Y98.041 E.02693
G1 X88.992 Y97.274 E.02694
G1 X89.518 Y96.36 E.03306
G1 X89.828 Y95.883 E.01784
G1 X90.154 Y95.416 E.01786
G1 X90.673 Y94.74 E.02672
G1 X91.227 Y94.091 E.02675
G1 X91.815 Y93.471 E.02679
G1 X92.226 Y93.074 E.01792
G1 X92.864 Y92.509 E.02672
G1 X93.532 Y91.978 E.02676
G1 X94.227 Y91.482 E.02677
G1 X94.947 Y91.023 E.02677
G1 X95.475 Y90.723 E.01904
G1 X96.199 Y90.342 E.02565
G1 X96.753 Y90.09 E.01908
G1 X97.742 Y89.686 E.0335
G1 X98.308 Y89.49 E.01878
G1 X99.125 Y89.247 E.02673
G1 X99.955 Y89.048 E.02676
M73 P2 R22
G1 X100.795 Y88.892 E.02679
G1 X101.642 Y88.78 E.02679
G1 X103.09 Y88.697 E.04548
G1 X103.72 Y88.697 E.01975
G1 X104.768 Y88.752 E.0329
G1 X105.616 Y88.848 E.02676
G1 X106.398 Y88.979 E.02486
G1 X107.292 Y89.174 E.02869
G1 X107.842 Y89.321 E.01785
G1 X108.657 Y89.577 E.02678
G1 X109.234 Y89.793 E.01932
G1 X110.24 Y90.216 E.03422
G1 X111.004 Y90.597 E.02677
G1 X111.747 Y91.017 E.02676
G1 X112.468 Y91.476 E.0268
G1 X112.982 Y91.843 E.0198
G1 X113.831 Y92.503 E.03372
G1 X114.471 Y93.069 E.02679
G1 X114.882 Y93.465 E.01789
G1 X115.469 Y94.083 E.02672
G1 X115.805 Y94.477 E.01624
M204 S1000
;WIPE_START
G1 F8640
G1 X115.844 Y94.522 E-.01375
G1 X115.861 Y94.542 E-.00606
G1 X116.543 Y95.41 E-.25489
G1 X116.871 Y95.877 E-.13177
G1 X117.306 Y96.56 E-.18698
G1 X117.749 Y97.337 E-.20655
;WIPE_END
G1 Z.6 F720
G1 X158.798 Y102.754 F10800
G1 Z.2 F720
G1 E.8 F2100
M204 S800
;TYPE:Perimeter
G1 F1200
G1 X157.748 Y102.528 E.03368
G1 X156.362 Y102.279 E.04415
G1 X154.961 Y102.078 E.04438
G1 X152.868 Y101.869 E.06595
G1 X151.481 Y101.791 E.04356
G1 X150.051 Y101.761 E.04485
G1 X148.643 Y101.78 E.04415
G1 X146.887 Y101.874 E.05514
G1 X145.159 Y102.038 E.05442
G1 X143.761 Y102.228 E.04424
G1 X141.913 Y102.56 E.05887
G1 X140.971 Y102.756 E.03017
G1 X138.929 Y103.273 E.06605
G1 X137.707 Y103.639 E.04
G1 X135.585 Y104.372 E.07039
G1 X134.272 Y104.894 E.0443
G1 X132.353 Y105.755 E.06595
G1 X131.486 Y106.185 E.03034
G1 X130.9 Y106.514 E.02107
G1 X130.173 Y106.999 E.0274
G1 X129.265 Y107.522 E.03285
G1 X128.011 Y108.301 E.04629
G1 X126.963 Y108.996 E.03943
G1 X125.828 Y109.807 E.04374
G1 X124.075 Y111.186 E.06993
G1 X123.131 Y111.991 E.0389
G1 X122.105 Y112.93 E.04361
G1 X121.517 Y113.506 E.02581
G1 X120.152 Y114.91 E.0614
G1 X119.227 Y115.95 E.04364
G1 X118.14 Y117.266 E.05352
M73 Q2 S25
G1 X117.474 Y118.026 E.03168
G1 X116.776 Y118.745 E.03142
G1 X116.042 Y119.425 E.03137
G1 X115.006 Y120.274 E.042
G1 X113.916 Y121.048 E.04192
G1 X112.774 Y121.744 E.04193
G1 X111.582 Y122.361 E.04208
G1 X110.98 Y122.634 E.02073
G1 X110.047 Y123.008 E.03152
G1 X109.099 Y123.333 E.03142
G1 X108.134 Y123.608 E.03146
G1 X107.157 Y123.832 E.03143
G1 X106.169 Y124.005 E.03145
G1 X105.171 Y124.127 E.03152
G1 X104.509 Y124.178 E.02082
G1 X103.502 Y124.213 E.03159
G1 X102.839 Y124.206 E.02079
G1 X101.835 Y124.153 E.03152
G1 X100.835 Y124.048 E.03153
G1 X100.179 Y123.949 E.0208
G1 X99.192 Y123.757 E.03153
G1 X98.218 Y123.515 E.03147
G1 X97.257 Y123.221 E.03151
G1 X96.632 Y123 E.02079
G1 X95.699 Y122.623 E.03155
G1 X94.794 Y122.202 E.0313
G1 X93.617 Y121.564 E.04198
G1 X92.762 Y121.031 E.03159
G1 X92.214 Y120.656 E.02082
G1 X91.411 Y120.052 E.0315
G1 X90.64 Y119.407 E.03152
G1 X90.15 Y118.959 E.02082
G1 X89.438 Y118.249 E.03153
G1 X88.765 Y117.505 E.03146
G1 X88.135 Y116.731 E.03129
G1 X87.355 Y115.643 E.04197
G1 X86.819 Y114.789 E.03161
G1 X86.491 Y114.212 E.02081
G1 X86.032 Y113.318 E.03151
G1 X85.621 Y112.4 E.03154
G1 X85.376 Y111.784 E.02079
G1 X85.046 Y110.834 E.03153
G1 X84.766 Y109.871 E.03144
G1 X84.538 Y108.899 E.0313
G1 X84.312 Y107.579 E.04199
G1 X84.204 Y106.58 E.03151
G1 X84.147 Y105.576 E.03153
G1 X84.153 Y104.244 E.04176
G1 X84.219 Y103.241 E.03152
G1 X84.337 Y102.243 E.03151
G1 X84.444 Y101.588 E.02081
G1 X84.649 Y100.601 E.03161
G1 X84.812 Y99.958 E.0208
G1 X85.1 Y98.999 E.0314
G1 X85.321 Y98.363 E.02111
G1 X85.562 Y97.743 E.02086
G1 X85.966 Y96.822 E.03153
G1 X86.418 Y95.924 E.03152
G1 X87.087 Y94.772 E.04177
G1 X87.646 Y93.933 E.03161
G1 X88.038 Y93.398 E.0208
G1 X88.666 Y92.612 E.03154
G1 X89.334 Y91.861 E.03151
G1 X89.796 Y91.385 E.0208
G1 X90.527 Y90.695 E.03152
G1 X91.292 Y90.043 E.03152
G1 X91.816 Y89.636 E.0208
G1 X92.636 Y89.053 E.03155
G1 X93.485 Y88.515 E.03151
G1 X94.06 Y88.184 E.0208
G1 X94.948 Y87.723 E.03137
G1 X95.558 Y87.439 E.0211
G1 X96.172 Y87.179 E.02091
G1 X97.116 Y86.827 E.03159
G1 X97.747 Y86.623 E.02079
G1 X98.719 Y86.354 E.03162
G1 X99.365 Y86.206 E.02078
G1 X100.354 Y86.023 E.03154
G1 X101.351 Y85.892 E.03153
G1 X102.012 Y85.834 E.0208
G1 X103.019 Y85.79 E.0316
G1 X106.732 Y85.845 E.11643
G1 X108.419 Y85.917 E.05294
G1 X110.106 Y86.018 E.05299
G1 X111.791 Y86.147 E.05299
G1 X113.474 Y86.305 E.053
G1 X115.154 Y86.492 E.053
G1 X116.831 Y86.707 E.05301
G1 X118.503 Y86.951 E.05298
G1 X120.171 Y87.223 E.05299
G1 X121.834 Y87.524 E.05299
G1 X123.492 Y87.853 E.053
G1 X125.144 Y88.21 E.05299
G1 X126.79 Y88.595 E.053
G1 X128.429 Y89.009 E.053
G1 X130.06 Y89.45 E.05298
G1 X131.645 Y89.907 E.05172
G1 X133.3 Y90.415 E.05428
G1 X134.907 Y90.939 E.053
G1 X136.505 Y91.49 E.053
G1 X138.092 Y92.069 E.05297
G1 X139.671 Y92.674 E.05302
G1 X141.238 Y93.306 E.05298
G1 X142.795 Y93.965 E.05301
G1 X144.34 Y94.65 E.05299
G1 X145.873 Y95.361 E.05298
G1 X147.394 Y96.099 E.05301
G1 X148.902 Y96.862 E.05299
G1 X150.397 Y97.651 E.053
G1 X151.878 Y98.465 E.05299
G1 X153.345 Y99.304 E.05299
G1 X154.798 Y100.168 E.053
G1 X156.236 Y101.057 E.05301
G1 X158.862 Y102.768 E.09827
G1 X158.857 Y102.767 E.00016
M204 S1000
;WIPE_START
G1 F8640
G1 X158.798 Y102.754 E-.01395
G1 X157.748 Y102.528 E-.248
G1 X156.362 Y102.279 E-.32515
G1 X155.449 Y102.148 E-.2129
;WIPE_END
G1 Z.6 F720
G1 X161.852 Y104.17 F10800
G1 Z.2 F720
G1 E.8 F2100
M204 S800
;TYPE:External perimeter
;WIDTH:0.421057
G1 F1200
G1 X161.679 Y104.114 E.00572
;WIDTH:0.424393
G1 X160.728 Y103.829 E.03149
;WIDTH:0.437462
G1 X160.065 Y103.521 E.02398
G1 X159.386 Y103.287 E.02356
;WIDTH:0.419999
G1 X158.706 Y103.118 E.02197
G1 X157.687 Y102.9 E.03267
G1 X156.308 Y102.652 E.04393
G1 X154.923 Y102.453 E.04387
G1 X152.854 Y102.247 E.06519
G1 X151.46 Y102.168 E.04378
G1 X150.056 Y102.138 E.04403
G1 X148.663 Y102.156 E.04368
G1 X146.923 Y102.249 E.05463
G1 X145.195 Y102.414 E.05443
G1 X143.812 Y102.601 E.04376
